X: 40779
T: Tovercirkel
R: jig
M: 6/8
K: Aminor
|:A2B cBA|GAB A2E|A2B cBA|d2d dcB|
A2B cBA|GAB AE^F|G^FG E2E|1 A2A A2E:|2 A3A3||
|:eae ded|c2B cBA|eae ded|c2B A3:|
|:cde cBA|cde cBA|cde cBA|G2B A3:|

